X:1
T:Lumps of Pudding
M:6/4
L:1/4
K:Bb
G/2-A/2| B- A G G- g f| d3/2- c/2B/2-A/2 G3/2 A/2- B| A- G F F- f d|\
 c3/2- B/2 A F f- g| a g f| d g f| d3/2 c/2 B f2 d|c/2-d/2c/2-A/2G/2-F/2 G3/2 B/2 c|\
 d3/2- c/2B/2 A/2 G2||
